X:1
T:Tinners Rabbits
M:2/4
L:1/8
K:G
%%text A (AB)5 B, pause, A
%P:A (AB)5 B, pause, A
P:A
B/c/ | "G"dG GA/B/ | "C"cE EG | "D"F/G/A/B/ cA | "G"ed dB/c/ |\
dG GA/B/ | "C"cE EG | "D"F/G/A/B/ cF | "G"AG G2 ||
P:B
"G"dg gf/g/ | "C"fe eA/B/ | "D"cc cA | "G"ed d/c/B/c/ |\
dg gf/g/ | "C"fe eG | "D"F/G/A/B/ cF | "G"AG G |]
